X:1
T:Haste to the Wedding (Rory O'More)
M:6/8
C:
S:Bacon (News)
N:
A:Adderbury
O:English
R:Jig
%P:A.(AB)$^6$
P:A.(AB)6
%:NoTeX
%:NoWWW
L:1/16
I:speed 600
K:F
P:A
d2 | c2A2F2 A2F2F2 | A2F2F2 F4 d2  | c2A2F2 A2G2F2 | E2G2G2 G4 \
d2 | c2A2F2 A2G2F2 | A2B2c2 d4 cB  | A2B2c2 c2d2e2 | f2F2F2 F4 ||\
P:B
f2 | f2e2d2 d2c2A2 | B2A2G2 F4 E2  | D2E2F2 F2G2A2 | B2d2c2 c4 \
f2 | f2e2d2 d2c2A2 | B2c2d2 d2d2c2 | A2B2c2 c2d2e2 | f2F2F2 F4 ||
